**kern	**kern
*staff1	*staff1
*solo1[solo1a]	*solo1[solo1a]
*solo1[solo1b]	*solo1[solo1b]
*solo1[solo1aa]	*solo1[solo1aa]
*solo2[solo2a]	*solo2[solo2a]
*solo2[solo2b]	*solo2[solo2b]
*solo2[solo2aa]	*solo2[solo2aa]
=1-	=1-
*clefG2	*clefG2
*k[]	*k[]
*c-:	*c-:
*M4/4	*M4/4
*>solo1a	*>solo1a
{8g\L	1C:min
16a\L	.
16b\J	.
8dd\	.
8b\J	.
8cc/L	.
8g/	.
8e-/	.
8d/J	.
=2	=2
8b-/L	2D:h7
8a-/J	.
4r	.
4r	2G:dom
8r	.
[8g/	.
=3	=3
4g/]	2C:min
8e-/L	.
8c/J	.
4f/}	.
4r	.
=4	=4
2r	2D:h7
2r	2G:dom
=5	=5
{8g\L	1C:min
16a\L	.
16b\J	.
8dd\	.
8b\J	.
8cc/L	.
8g/	.
8e-/	.
8c/J	.
=6	=6
8b-/L	2D:h7
8a-/J	.
8r	.
8g/	.
8r	2G:dom
8c/	.
8r	.
[8d/	.
=7	=7
4d/]	1C:min
8f/L	.
8d/J	.
8e-/L	.
8c/J}	.
4r	.
=8	=8
2r	1C:dom:9-
{16dd-\LL	.
16cc\	.
16b-\	.
16a-\JJ	.
16g/LL	.
16f/	.
16e/	.
16g/JJ	.
=9	=9
16b-\LL	1F:min
16dd-\	.
16cc\	.
16b-\JJ	.
4a-/}	.
8r	.
{8c/L	.
8f/	.
8a-/J	.
=10||	=10||
24g/LL	1C:dom:9-
24a-/	.
24g/JJ	.
8f/L	.
8e/	.
8G/J	.
8B-/L	.
8d-/	.
8c/	.
8B-/J	.
=11	=11
8A-/L	1F:min
8c/	.
8g/	.
[8f/J	.
4f/]}	.
4r	.
=12	=12
2r	1F:min
{8g\L	.
8cc\	.
8ee-\	.
[8gg\J	.
=13	=13
8gg/L]	1C:min
[8a/J	.
4a/]}	.
2r	.
=14	=14
2r	1C:min
{12ff#\L	.
12gg\	.
12ff#\J	.
8ffn\L	.
8ee-\J	.
=15	=15
8dd\L	1G:dom
8cc\	.
8b\	.
8d\J	.
8f/L	.
8a-/	.
8g/	.
8f/J	.
=16	=16
8e-/L	1C:min
8c/J}	.
4r	.
4r	.
8r	.
*>solo1b	*>solo1b
{8cc\	.
=17	=17
16dd\LL	1C:dom
16dd-\	.
16cc\	.
16b\JJ	.
2b-\	.
8a-/L	.
16g/L	.
16f/JJ	.
=18||	=18||
8e/L	1C:dom:9-
8G/	.
8B-/	.
8d-/J	.
8a-/L	.
8g/	.
8e/	.
8G/J	.
=19	=19
8B-/L	1F:min
8d-/	.
8c/	.
8B-/J	.
8A-/L	.
8c/	.
8G/	.
8E/J	.
=20	=20
4F/}	1F:min
4r	.
2r	.
=21	=21
8r	1F:min
{8c/	.
16f/LL	.
16a-/	.
16cc/	.
16ff/JJ	.
8gg\L	.
8gg-\	.
8ff\	.
8ee\J	.
=22	=22
8ee-\L	1B-:dom
8cc#\	.
8dd\	.
8ff\J	.
12B/L	.
12c#/	.
12B/J	.
8B-/L	.
8a-/J	.
=23	=23
8g/L	1E-:maj
8B-/	.
8c/	.
8d/J	.
8f/L	.
8e-/	.
8d/	.
8c/J	.
=24	=24
8B/L	1G:dom
8d/	.
8A/	.
8A-/J	.
8G/	.
4e-/	.
8B/	.
=25	=25
4c/	1C:min
8c/L	.
8d/J	.
8e-/	.
4c/	.
8d/	.
=26||	=26||
8r	2D:h7
[8a-/	.
4a-/]}	.
*>solo1aa	*>solo1aa
2r	2G:dom
=27	=27
4r	1C:min
{8g/L	.
8cc/J	.
8dd\L	.
8ee-\	.
8dd\	.
8cc\J	.
=28	=28
8b/L	1G:dom
8d/	.
8f/	.
[8a-/J	.
12a-/L]	.
12b-/	.
12a-/J	.
8g/L	.
8f/J	.
=29	=29
8e-/L	1C:min
8G/	.
8c/	.
8e-/J	.
2A/}	.
=30	=30
4r	2D:h
{8c/L	.
8B-/J	.
12Bn/L	2G:dom
12d/	.
12f/J	.
12a-/L	.
12b-/	.
12a-/J	.
=31	=31
8g/L	1C:min
8e-/J}	.
4r	.
2r	.
=32	=32
2r	1G:dom:9+
4r	.
8r	.
*>solo2a	*>solo2a
{8g/	.
=33	=33
8r	1C:min
4e-/	.
8c/	.
8f/L	.
8g/	.
8a-/	.
8g/J	.
=34||	=34||
8r	2D:h7
8cc\	.
8r	.
[8b\	.
8b\L]	2G:dom
8dd\	.
8ff\	.
8aa-\J	.
=35	=35
8gg\L	2C:min
8ee-\	.
8cc\	.
8g\J	.
8f/L	2G:dom
8a/	.
8b/	.
8dd/J	.
=36	=36
8cc/L	2C:min
8g/	.
8e-/	.
8c/J	.
4b-\	2G:min
16a-/LL	.
16e-/	.
16B/	.
16A-/JJ	.
=37	=37
2G/}	1C:min
2r	.
=38	=38
4r	2D:h7
{12g-/L	.
12a-/	.
12g-/J	.
8f/L	2G:dom
8e-/	.
8d/	.
8c/J	.
=39	=39
8B/L	1G:dom
8d-/	.
8A/	.
8G-/J	.
8Gn/L	.
8e-/J	.
4A/}	.
=40	=40
1r	1C:dom
=41	=41
8r	1F:min
{24c/LL	.
24d/	.
24e/JJ	.
8f/L	.
8g/J	.
8a-\L	.
8b-\	.
8bn\	.
8cc\J	.
=42||	=42||
8dd-\L	1C:dom:9-
16cc\L	.
16b\J	.
8b-\	.
8a-\J	.
8g/L	.
8f/	.
8e/	.
8g/J	.
=43	=43
8b-\L	1F:min
8dd-\	.
8cc\	.
8b-\J	.
8a-\L	.
8cc\	.
8ff\	.
8aa-\J	.
=44	=44
8gg\L	1F:min
8ff\J	.
4ee\	.
8gg\L	.
8ff\J}	.
4r	.
=45	=45
2r	1C:min
8r	.
{16gg\LL	.
16gg-\J	.
8ff\	.
8ee-\J	.
=46	=46
8dd\L	1G:dom:9-
8cc\	.
8b\	.
8d\J	.
8f/L	.
8a-/	.
8g/	.
8f/J	.
=47	=47
8e-/L	1C:min
8G/	.
8c/	.
8e-/J	.
8d/L	.
8c/	.
8B/	.
8c/J	.
=48	=48
8d/L	1C:min
8c/J}	.
4r	.
2r	.
=49	=49
4r	1C:dom
8r	.
*>solo2b	*>solo2b
{8c/	.
16f#/LL	.
16g/	.
16b-/	.
16dd/JJ	.
16ff\LL	.
16dd\	.
16ee-\	.
16een\JJ	.
=50||	=50||
16cc\LL	1C:dom
16cc#\	.
16dd\	.
16ccn\JJ	.
16b-/LL	.
16a-/	.
16g/	.
16f/JJ	.
16e\LL	.
16g\	.
16b-\	.
16cc\J	.
8dd-\	.
[8cc\J	.
=51	=51
4cc\]	1F:min
8a-/L	.
8c/J	.
8g/L	.
8f/	.
8e/	.
8c/J	.
=52	=52
8f/L	1F:min
[8c/J	.
4c/]}	.
2r	.
=53	=53
4r	1F:min
8r	.
{24c/LL	.
24d/	.
24e/JJ	.
8f/L	.
8g/	.
8a-/	.
8b-/J	.
=54	=54
8cc\L	1B-:dom
8ee-\	.
8gg\	.
[8gg-\J	.
8gg-\L]	.
16dd\L	.
16b\J	.
8a-\	.
[8ff\J	.
=55	=55
4ff\]	1E-:maj
8ee-\L	.
8b-\J	.
12dd\L	.
12ee-\	.
12een\J	.
8ff\L	.
8ee-\J	.
=56	=56
8dd\L	1G:dom:9-
8cc\	.
8b\	.
8d\J	.
8f/L	.
8a-/	.
8g/	.
8f/J	.
=57	=57
4e-/}	1C:min
4r	.
4r	.
*>solo2aa	*>solo2aa
{12e-/L	.
12e-/	.
12e-/J	.
=58||	=58||
4e-/	2D:h7
4f/}	.
2r	2G:dom
=59	=59
{12e-/L	2C:min
12e-/	.
12e-/J	.
8e-/L	.
[8g-/J	.
12g-/L]	.
12a-/	.
12g-/J	.
8f/L	.
8e-/J	.
=60	=60
8d/L	2D:h7
8c/	.
8B/	.
8D/J	.
8F/L	2G:dom:9-
[8A-/J	.
4A-/]	.
=61	=61
4G/}	2C:min
4r	.
2r	.
=62	=62
{8G/L	2D:h7
8A/	.
8c/	.
8d/J	.
12e-/L	2G:dom
12f/	.
12e-/J	.
8d/L	.
8c/J	.
=63	=63
8B/L	1C:min
8d/	.
8f/	.
8a-/J	.
8g/L	.
8f/	.
8e-/	.
8G/J	.
=64	=64
8c/L	2D:h7
8e-/	.
8d/	.
8c/J	.
8B/L	2G:dom
8c/	.
8d/	.
[8A/J	.
=65	=65
4A/]}	1C:min
4r	.
2r	.
==	==
*-	*-
